X:4
T:Passe-pid a l'Rambosse
T:Mormont
B:Les p'tites danses d'Erezee
O:Wallonie
M:3/4
R:passe-pied
L:1/8
Q:C2=160
K:G
D2 |: G2 GABc | d2 B2 B2 | c2 A2 A2 | B2 G2 D2 |
G2 GABc | d2 B2 B2 | c2 A2 F2 |1 G3 z D2 :|2 G3 z Bd |
|: g2 g2 g2 | f2 f2 f2 | e z efge | e2 d z d2 |
c z ce Ac | B z Bd GB | A z Ac FA |1 GBd z Bd :|2 G3 z ||
